public/assets/svgs/clients/socialcode.svg

<svg height="31" viewBox="0 0 270 31" width="270" xmlns="http://www.w3.org/2000/svg"><g fill="#8e9ba0" fill-rule="evenodd" transform="translate(0 -1)"><path d="m132.060318 2.06627143v28.88442857h18.338883v-1.9391429h-16.278436v-26.94528567z"/><g transform="translate(0 .016657)"><path d="m11.1683464 31.3462286c-2.21731847 0-4.2174302-.3865715-6.00033523-1.155-1.78139664-.77-3.50547486-1.9265715-5.16770949-3.4665715l1.34698324-1.6091428c.7647486.7417143 1.52497206 1.3812857 2.27765363 1.9187143.75268156.5358571 1.52346368.9758571 2.31536313 1.32.79340782.3441428 1.62452514.6065714 2.49636871.7841428.8703352.1791429 1.82061451.2687143 2.85083801.2687143 1.0302234 0 1.9805028-.1445714 2.8523463-.4337143.8703352-.2875714 1.6109498-.6882857 2.2173185-1.1958571.6078771-.5091429 1.0815084-1.1157143 1.4269274-1.815.3408938-.7024286.5143575-1.4661429.5143575-2.2911429v-.0832857c0-.77-.1131285-1.4582857-.3378771-2.0617143-.2232402-.6065714-.6320112-1.155-1.2278212-1.65-.5927933-.4965714-1.3922347-.9428571-2.3953073-1.342-1.0030726-.3975714-2.2972626-.7637143-3.8810614-1.0937143-1.66374306-.3567142-3.08916205-.7762857-4.2777654-1.2587142-1.18709497-.4808572-2.16-1.045-2.90966481-1.6924286-.75268156-.6442857-1.30324022-1.3954286-1.64413407-2.2487143-.345419-.8517143-.51586593-1.8275714-.51586593-2.92914286v-.08171428c0-1.07328572.22324023-2.07114286.67273743-2.992.44798883-.92085715 1.06944134-1.727 1.86284917-2.41371429.79039106-.68828571 1.72860335-1.22414286 2.81162011-1.60914286 1.08150838-.385 2.27011173-.57828571 3.5643017-.57828571 2.0061452 0 3.7422905.28914286 5.2069273.86585714 1.4676537.57828572 2.8975978 1.45985715 4.2988827 2.64157143l-1.3077653 1.69242857c-1.3213408-1.18328571-2.6472067-2.02242857-3.9806146-2.519-1.3318994-.49342857-2.7648603-.74171428-4.29586588-.74171428-1.03022346 0-1.96089386.14457143-2.79351955.43371428-.83111732.28914286-1.54458101.682-2.13888269 1.177-.59430167.49342857-1.04832402 1.07171429-1.36508379 1.73171429-.31826816.66-.47664805 1.36242857-.47664805 2.10414286v.08171428c0 .77157143.11312849 1.46614283.3378771 2.08371433.22324022.6207142.63201117 1.1848571 1.22782123 1.6924285.59279329.5091429 1.41787709.9711429 2.47525139 1.3828572 1.05586592.4132857 2.40284916.7982857 4.03944134 1.155 3.2203911.6882857 5.5448045 1.6578571 6.9702235 2.9087143 1.4269273 1.2524285 2.1388826 2.937 2.1388826 5.0552857v.0832857c0 1.155-.2322905 2.2204286-.6923463 3.1962857-.4630726.9774286-1.0965922 1.8102857-1.9020671 2.497-.8054748.6882857-1.7693296 1.2241429-2.8915642 1.6091429-1.1207263.385-2.3560894.5782857-3.7030726.5782857z"/><path d="m38.7715475 3.5024c6.8751955 0 12.4682681 5.82685714 12.4682681 12.9894286 0 7.1625714-5.5930726 12.9894285-12.4682681 12.9894285s-12.4682682-5.8268571-12.4682682-12.9894285c0-7.16257146 5.5930727-12.9894286 12.4682682-12.9894286m0-1.947c-7.9189944 0-14.3371509 6.68642857-14.3371509 14.9364286 0 8.25 6.4181565 14.9364285 14.3371509 14.9364285s14.3371508-6.6864285 14.3371508-14.9364285c0-8.25000003-6.4181564-14.9364286-14.3371508-14.9364286"/><path d="m91.1257542 30.9335714h2.0589385v-28.88285711h-2.0589385z"/><path d="m111.963117 1.8436h1.980503l12.911732 29.0902857h-2.256536l-3.525084-8.0881428h-16.35838l-3.525084 8.0881428h-2.1388825zm8.238771 19.063-7.288491-16.71057143-7.32771 16.71057143z"/><path d="m71.6132011 29.4809429c-6.8721788 0-12.4682681-5.83-12.4682681-12.9894286 0-7.1657143 5.5960893-12.98785716 12.4682681-12.98785716 4.2083799 0 7.9416201 2.18271429 10.1921229 5.52042857h2.223352c-2.4752514-4.466-7.1029609-7.46742857-12.4154749-7.46742857-7.9159776 0-14.3371508 6.68171429-14.3371508 14.93485716 0 8.2484286 6.4211732 14.9364286 14.3371508 14.9364286 5.3049721 0 9.9402235-3.0014286 12.4154749-7.4674286h-2.2308939c-2.2489944 3.3377143-5.9762011 5.5204286-10.184581 5.5204286"/><path d="m218.41748 2.04882857h10.336928c2.164525 0 4.151061.36457143 5.961117 1.09371429 1.808548.72757143 3.366704 1.738 4.674469 3.03128571 1.306257 1.29485714 2.316872 2.81442857 3.028827 4.56028573.711956 1.7474286 1.067933 3.6378571 1.067933 5.6728571v.0832857c0 2.0365715-.355977 3.9348572-1.067933 5.6948572-.711955 1.76-1.72257 3.2874286-3.028827 4.5791428-1.307765 1.2932858-2.865921 2.3115715-4.674469 3.0532858-1.810056.7432857-3.796592 1.1141428-5.961117 1.1141428h-10.336928zm4.872067 4.62v19.64128573h5.464861c1.451061 0 2.770894-.2404286 3.961005-.7228572 1.187095-.4792857 2.19771-1.155 3.030336-2.0208571.831117-.8658571 1.478212-1.8967143 1.939776-3.0941429.463073-1.1974285.692347-2.497.692347-3.8987142v-.0832858c0-1.4032857-.229274-2.7091428-.692347-3.9191428-.461564-1.21-1.108659-2.2502857-1.939776-3.11614287-.832626-.86585714-1.843241-1.54628572-3.030336-2.04128572-1.190111-.49657142-2.509944-.74485714-3.961005-.74485714z"/><path d="m248.318397 2.04882857h20.556201v4.53828572h-15.684134v7.50985711h13.901229v4.5382857h-13.901229v7.7581429h15.881732v4.5382857h-20.753799z"/><path d="m174.30476 23.7714714c-3.856928 4.0181429-10.133296 4.0228572-13.990224.0047143-3.855419-4.0181428-3.850894-10.5568571.004525-14.57499999 1.859833-1.93757142 4.285308-2.94328571 6.733408-3.00614285l3.965531-4.13128572c-4.781564-1.33414285-10.09257-.04714285-13.843911 3.861-5.602123 5.83628576-5.602123 15.29628576-.004525 21.12785716s14.678045 5.8315714 20.280168-.0047143c3.752849-3.9081429 4.986704-9.4411429 3.706089-14.4225714l-3.96553 4.1312857c-.058827 2.5504286-1.025699 5.0772857-2.885531 7.0148571"/><path d="m199.156073 6.18875714c5.452793 0 9.888938 4.62157146 9.888938 10.30228576 0 5.6822857-4.436145 10.3038571-9.888938 10.3038571-5.452794 0-9.888939-4.6215714-9.888939-10.3038571 0-5.6807143 4.436145-10.30228576 9.888939-10.30228576m0-4.63414285c-7.917486 0-14.337151 6.688-14.337151 14.93642861 0 8.25 6.419665 14.938 14.337151 14.938 7.918994 0 14.33715-6.688 14.33715-14.938 0-8.24842861-6.418156-14.93642861-14.33715-14.93642861"/></g></g></svg>

<?xml version="1.0" encoding="UTF-8"?>
<svg width="270px" height="31px" viewBox="0 0 270 31" version="1.1" xmlns="http://www.w3.org/2000/svg" xmlns:xlink="http://www.w3.org/1999/xlink">
    <desc>The text-based horizontally-spanned Social Code logo</desc>
    <defs></defs>
    <g id="Emails" stroke="none" stroke-width="1" fill="none" fill-rule="evenodd">
        <g id="Artboard-Copy-5" transform="translate(0.000000, -1.000000)" fill="#8e9ba0">
            <g id="Page-1">
                <polygon id="Fill-1" points="132.060318 2.06627143 132.060318 30.9507 150.399201 30.9507 150.399201 29.0115571 134.120765 29.0115571 134.120765 2.06627143"></polygon>
                <g id="Group-14" transform="translate(0.000000, 0.016657)">
                    <path d="M11.1683464,31.3462286 C8.95102793,31.3462286 6.9509162,30.9596571 5.16801117,30.1912286 C3.38661453,29.4212286 1.66253631,28.2646571 0.000301675977,26.7246571 L1.34728492,25.1155143 C2.11203352,25.8572286 2.87225698,26.4968 3.62493855,27.0342286 C4.37762011,27.5700857 5.14840223,28.0100857 5.94030168,28.3542286 C6.7337095,28.6983714 7.56482682,28.9608 8.43667039,29.1383714 C9.30700559,29.3175143 10.2572849,29.4070857 11.2875084,29.4070857 C12.3177318,29.4070857 13.2680112,29.2625143 14.1398547,28.9733714 C15.0101899,28.6858 15.7508045,28.2850857 16.3571732,27.7775143 C16.9650503,27.2683714 17.4386816,26.6618 17.7841006,25.9625143 C18.1249944,25.2600857 18.2984581,24.4963714 18.2984581,23.6713714 L18.2984581,23.5880857 C18.2984581,22.8180857 18.1853296,22.1298 17.960581,21.5263714 C17.7373408,20.9198 17.3285698,20.3713714 16.7327598,19.8763714 C16.1399665,19.3798 15.3405251,18.9335143 14.3374525,18.5343714 C13.3343799,18.1368 12.0401899,17.7706571 10.4563911,17.4406571 C8.79264804,17.0839429 7.36722905,16.6643714 6.1786257,16.1819429 C4.99153073,15.7010857 4.0186257,15.1369429 3.26896089,14.4895143 C2.51627933,13.8452286 1.96572067,13.0940857 1.62482682,12.2408 C1.27940782,11.3890857 1.10896089,10.4132286 1.10896089,9.31165714 L1.10896089,9.22994286 C1.10896089,8.15665714 1.33220112,7.1588 1.78169832,6.23794286 C2.22968715,5.31708571 2.85113966,4.51094286 3.64454749,3.82422857 C4.43493855,3.13594286 5.37315084,2.60008571 6.4561676,2.21508571 C7.53767598,1.83008571 8.72627933,1.6368 10.0204693,1.6368 C12.0266145,1.6368 13.7627598,1.92594286 15.2273966,2.50265714 C16.6950503,3.08094286 18.1249944,3.96251429 19.5262793,5.14422857 L18.218514,6.83665714 C16.8971732,5.65337143 15.5713073,4.81422857 14.2378994,4.31765714 C12.906,3.82422857 11.4730391,3.57594286 9.94203352,3.57594286 C8.91181006,3.57594286 7.98113966,3.72051429 7.14851397,4.00965714 C6.31739665,4.2988 5.60393296,4.69165714 5.00963128,5.18665714 C4.41532961,5.68008571 3.96130726,6.25837143 3.64454749,6.91837143 C3.32627933,7.57837143 3.16789944,8.2808 3.16789944,9.02251429 L3.16789944,9.10422857 C3.16789944,9.8758 3.28102793,10.5703714 3.50577654,11.1879429 C3.72901676,11.8086571 4.13778771,12.3728 4.73359777,12.8803714 C5.32639106,13.3895143 6.15147486,13.8515143 7.20884916,14.2632286 C8.26471508,14.6765143 9.61169832,15.0615143 11.2482905,15.4182286 C14.4686816,16.1065143 16.793095,17.0760857 18.218514,18.3269429 C19.6454413,19.5793714 20.3573966,21.2639429 20.3573966,23.3822286 L20.3573966,23.4655143 C20.3573966,24.6205143 20.1251061,25.6859429 19.6650503,26.6618 C19.2019777,27.6392286 18.5684581,28.4720857 17.7629832,29.1588 C16.9575084,29.8470857 15.9936536,30.3829429 14.871419,30.7679429 C13.7506927,31.1529429 12.5153296,31.3462286 11.1683464,31.3462286 L11.1683464,31.3462286 Z" id="Fill-2"></path>
                    <path d="M38.7715475,3.5024 C45.646743,3.5024 51.2398156,9.32925714 51.2398156,16.4918286 C51.2398156,23.6544 45.646743,29.4812571 38.7715475,29.4812571 C31.896352,29.4812571 26.3032793,23.6544 26.3032793,16.4918286 C26.3032793,9.32925714 31.896352,3.5024 38.7715475,3.5024 M38.7715475,1.5554 C30.8525531,1.5554 24.4343966,8.24182857 24.4343966,16.4918286 C24.4343966,24.7418286 30.8525531,31.4282571 38.7715475,31.4282571 C46.6905419,31.4282571 53.1086983,24.7418286 53.1086983,16.4918286 C53.1086983,8.24182857 46.6905419,1.5554 38.7715475,1.5554" id="Fill-4"></path>
                    <polygon id="Fill-6" points="91.1257542 30.9335714 93.1846927 30.9335714 93.1846927 2.05071429 91.1257542 2.05071429"></polygon>
                    <path d="M111.963117,1.8436 L113.94362,1.8436 L126.855352,30.9338857 L124.598816,30.9338857 L121.073732,22.8457429 L104.715352,22.8457429 L101.190268,30.9338857 L99.0513855,30.9338857 L111.963117,1.8436 Z M120.201888,20.9066 L112.913397,4.19602857 L105.585687,20.9066 L120.201888,20.9066 Z" id="Fill-8"></path>
                    <path d="M71.6132011,29.4809429 C64.7410223,29.4809429 59.144933,23.6509429 59.144933,16.4915143 C59.144933,9.3258 64.7410223,3.50365714 71.6132011,3.50365714 C75.821581,3.50365714 79.5548212,5.68637143 81.805324,9.02408571 L84.028676,9.02408571 C81.5534246,4.55808571 76.9257151,1.55665714 71.6132011,1.55665714 C63.6972235,1.55665714 57.2760503,8.23837143 57.2760503,16.4915143 C57.2760503,24.7399429 63.6972235,31.4279429 71.6132011,31.4279429 C76.9181732,31.4279429 81.5534246,28.4265143 84.028676,23.9605143 L81.7977821,23.9605143 C79.5487877,27.2982286 75.821581,29.4809429 71.6132011,29.4809429" id="Fill-9"></path>
                    <path d="M218.41748,2.04882857 L228.754408,2.04882857 C230.918933,2.04882857 232.905469,2.4134 234.715525,3.14254286 C236.524073,3.87011429 238.082229,4.88054286 239.389994,6.17382857 C240.696251,7.46868571 241.706866,8.98825714 242.418821,10.7341143 C243.130777,12.4815429 243.486754,14.3719714 243.486754,16.4069714 L243.486754,16.4902571 C243.486754,18.5268286 243.130777,20.4251143 242.418821,22.1851143 C241.706866,23.9451143 240.696251,25.4725429 239.389994,26.7642571 C238.082229,28.0575429 236.524073,29.0758286 234.715525,29.8175429 C232.905469,30.5608286 230.918933,30.9316857 228.754408,30.9316857 L218.41748,30.9316857 L218.41748,2.04882857 Z M223.289547,6.66882857 L223.289547,26.3101143 L228.754408,26.3101143 C230.205469,26.3101143 231.525302,26.0696857 232.715413,25.5872571 C233.902508,25.1079714 234.913123,24.4322571 235.745749,23.5664 C236.576866,22.7005429 237.223961,21.6696857 237.685525,20.4722571 C238.148598,19.2748286 238.377872,17.9752571 238.377872,16.5735429 L238.377872,16.4902571 C238.377872,15.0869714 238.148598,13.7811143 237.685525,12.5711143 C237.223961,11.3611143 236.576866,10.3208286 235.745749,9.45497143 C234.913123,8.58911429 233.902508,7.90868571 232.715413,7.41368571 C231.525302,6.91711429 230.205469,6.66882857 228.754408,6.66882857 L223.289547,6.66882857 Z" id="Fill-10"></path>
                    <polygon id="Fill-11" points="248.318397 2.04882857 268.874598 2.04882857 268.874598 6.58711429 253.190464 6.58711429 253.190464 14.0969714 267.091693 14.0969714 267.091693 18.6352571 253.190464 18.6352571 253.190464 26.3934 269.072196 26.3934 269.072196 30.9316857 248.318397 30.9316857"></polygon>
                    <path d="M174.30476,23.7714714 C170.447832,27.7896143 164.171464,27.7943286 160.314536,23.7761857 C156.459117,19.7580429 156.463642,13.2193286 160.319061,9.20118571 C162.178894,7.26361429 164.604369,6.2579 167.052469,6.19504286 L171.018,2.06375714 C166.236436,0.729614286 160.92543,2.01661429 157.174089,5.92475714 C151.571966,11.7610429 151.571966,21.2210429 157.169564,27.0526143 C162.767162,32.8841857 171.847609,32.8841857 177.449732,27.0479 C181.202581,23.1397571 182.436436,17.6067571 181.155821,12.6253286 L177.190291,16.7566143 C177.131464,19.3070429 176.164592,21.8339 174.30476,23.7714714" id="Fill-12"></path>
                    <path d="M199.156073,6.18875714 C204.608866,6.18875714 209.045011,10.8103286 209.045011,16.4910429 C209.045011,22.1733286 204.608866,26.7949 199.156073,26.7949 C193.703279,26.7949 189.267134,22.1733286 189.267134,16.4910429 C189.267134,10.8103286 193.703279,6.18875714 199.156073,6.18875714 M199.156073,1.55461429 C191.238587,1.55461429 184.818922,8.24261429 184.818922,16.4910429 C184.818922,24.7410429 191.238587,31.4290429 199.156073,31.4290429 C207.075067,31.4290429 213.493223,24.7410429 213.493223,16.4910429 C213.493223,8.24261429 207.075067,1.55461429 199.156073,1.55461429" id="Fill-13"></path>
                </g>
            </g>
        </g>
    </g>
</svg>
